!!!OTL: MAEDCHEN WILLST DU FREIEN
!!!ARE: Europa, Mitteleuropa, Deutschland, Thueringen; Sachsen
!!!SCT: E0841
!!!YEM: Copyright 1995, estate of Helmut Schaffrath.
**kern
*ICvox
*Ivox
*M2/4
*k[b-]
*F:
=1
{8cc
8cc
8cc
8dd
=2
4cc
8a}
{8cc
=3
8cc
8b-
8g
8e
=4
4.f}
{8cc
=5
8cc
8cc
8cc
8dd
=6
4cc
8a}
{8a
=7
8b-
8g
8f
8e
=8
4g
8f
8r}
==
!!!AGN: Hochzeits -, Ehestands - Lied
!!!ONB: ESAC (Essen Associative Code) Database: ERK2
!!!AMT: simple duple
!!!AIN: vox
!!!EED: Helmut Schaffrath
!!!EEV: 1.0
*-
